svg/language_rust.svg

<svg xmlns="http://www.w3.org/2000/svg" viewBox="0 0 24 24"><path d="m21.9 11.7-.9-.5V11l.7-.7c.1-.1.1-.3 0-.4l-.1-.1-.9-.3c0-.1 0-.2-.1-.2l.6-.8c.1-.1.1-.3-.1-.4 0 0-.1 0-.1-.1l-1-.2c0-.1-.1-.1-.1-.2l.4-.9v-.3c-.1-.1-.2-.1-.3-.1h-1s0-.1-.1-.1l.2-1c0-.2-.1-.3-.2-.3h-.1l-1 .2c0-.1-.1-.1-.2-.2v-1q0-.3-.3-.3h-.1l-.9.4h-.1L16 3c0-.2-.2-.3-.3-.2h-.1l-.8.6c-.1 0-.2 0-.2-.1l-.3-.9c-.1-.1-.2-.2-.4-.2 0 0-.1 0-.1.1L13 3h-.2l-.5-.8c-.1-.2-.3-.2-.5-.2l-.1.1-.5.9H11l-.7-.7c-.1-.1-.3-.1-.4 0l-.1.1-.3.9c-.1 0-.2 0-.2.1l-.8-.6c-.2-.1-.4-.1-.5.1V3l-.2 1s-.1 0-.2.1l-.9-.4c-.1-.1-.3 0-.4.1v1.1c0 .1-.1.1-.1.2l-1-.2c-.2-.1-.3 0-.3.2v.1l.2 1c-.1 0-.1.1-.2.1h-1q-.3 0-.3.3v.1l.4.9v.2L3 8c-.2 0-.3.2-.3.3v.1l.6.8c0 .1 0 .2-.1.2l-.8.4c-.1.1-.2.2-.2.4 0 0 0 .1.1.1l.7.7v.2l-.8.5c-.2.1-.2.3-.2.4l.1.1.9.6v.2l-.7.7c-.1.1-.1.3 0 .4l.1.1.9.3c0 .1 0 .2.1.2l-.6.8c-.1.1-.1.3.1.4 0 0 .1 0 .1.1l1 .2c0 .1.1.1.1.2l-.4.9c-.1.1 0 .3.1.4h1.1c.1 0 .1.1.2.1l-.2 1c0 .2.1.3.2.3h.1l1-.2c0 .1.1.1.2.2v1q0 .3.3.3h.1l.9-.4h.1l.2 1c0 .2.2.3.3.2h.1l.8-.6c.1 0 .2 0 .2.1l.3.9c.1.1.2.2.4.2 0 0 .1 0 .1-.1l.8-.7h.2l.5.8c.1.1.3.2.4.1l.1-.1.5-.8h.2l.7.7c.1.1.3.1.4 0l.1-.1.3-.9c.1 0 .2 0 .2-.1l.8.6c.1.1.3.1.4-.1 0 0 0-.1.1-.1l.2-1c.1 0 .1-.1.2-.1l.9.4c.1.1.3 0 .4-.1v-1.1l.2-.2 1 .2c.2 0 .3-.1.3-.2v-.1l-.2-1 .2-.2h1q.3 0 .3-.3v-.1l-.4-.9c0-.1.1-.1.1-.2l1-.2c.2 0 .3-.2.2-.3v-.1l-.6-.8.1-.2.9-.3c.1-.1.2-.2.2-.4 0 0 0-.1-.1-.1L21 13v-.2l.8-.5c.2-.1.2-.3.1-.6q0 .15 0 0m-5.7 7c-.3-.1-.5-.4-.5-.7.1-.3.4-.5.7-.5.3.1.5.4.5.7 0 .4-.3.6-.7.5m-.2-1.9c-.3-.1-.6.1-.6.4l-.4 1.4q-1.35.6-3 .6c-1.1 0-2.1-.2-3.1-.7l-.3-1.4c-.1-.3-.3-.5-.6-.4l-1.2.3c-.2-.2-.4-.5-.6-.7h6c.1 0 .1 0 .1-.1v-2.1c0-.1 0-.1-.1-.1h-1.7v-1.3h1.9c.2 0 .9 0 1.2 1 .1.3.2 1.3.4 1.6.1.3.6 1 1.1 1h3.1c-.2.3-.4.5-.7.8zm-8.3 1.9c-.3.1-.6-.1-.7-.5-.1-.3.1-.6.5-.7s.6.1.7.5c0 .3-.2.6-.5.7M5.4 9.5c.1.3 0 .7-.3.8s-.7 0-.8-.3 0-.7.3-.8c.4-.1.7 0 .8.3m-.7 1.6 1.3-.5c.3-.1.4-.4.3-.7L6 9.3h1V14H5c-.3-1-.4-1.9-.3-2.9m5.6-.4V9.3h2.5c.1 0 .9.1.9.7 0 .5-.6.7-1.1.7zm9 1.2v.5h-.8c-.1 0-.1 0-.1.1v.3c0 .8-.5 1-.9 1s-.8-.2-.9-.4c-.2-1.3-.6-1.5-1.2-2 .7-.5 1.5-1.2 1.5-2.1 0-1-.7-1.6-1.1-1.9-.7-.4-1.4-.5-1.6-.5H6.6c1.1-1.2 2.5-2 4.1-2.3l.9 1c.2.2.5.2.8 0l1-1c2.1.4 3.9 1.7 5 3.6l-.7 1.6c-.1.3 0 .6.3.7l1.3.6zm-7.7-8c.2-.2.6-.2.8 0s.2.6 0 .8q-.45.45-.9 0c-.2-.2-.1-.5.1-.8m6.9 5.6c.1-.3.5-.4.8-.3s.4.5.3.8-.5.4-.8.3-.4-.5-.3-.8"/></svg>

<?xml version="1.0" encoding="UTF-8"?><!DOCTYPE svg PUBLIC "-//W3C//DTD SVG 1.1//EN" "http://www.w3.org/Graphics/SVG/1.1/DTD/svg11.dtd"><svg xmlns="http://www.w3.org/2000/svg" xmlns:xlink="http://www.w3.org/1999/xlink" version="1.1" id="mdi-language-rust" width="24" height="24" viewBox="0 0 24 24"><path d="M21.9 11.7L21 11.2V11L21.7 10.3C21.8 10.2 21.8 10 21.7 9.9L21.6 9.8L20.7 9.5C20.7 9.4 20.7 9.3 20.6 9.3L21.2 8.5C21.3 8.4 21.3 8.2 21.1 8.1C21.1 8.1 21 8.1 21 8L20 7.8C20 7.7 19.9 7.7 19.9 7.6L20.3 6.7V6.4C20.2 6.3 20.1 6.3 20 6.3H19C19 6.3 19 6.2 18.9 6.2L19.1 5.2C19.1 5 19 4.9 18.9 4.9H18.8L17.8 5.1C17.8 5 17.7 5 17.6 4.9V3.9C17.6 3.7 17.5 3.6 17.3 3.6H17.2L16.3 4H16.2L16 3C16 2.8 15.8 2.7 15.7 2.8H15.6L14.8 3.4C14.7 3.4 14.6 3.4 14.6 3.3L14.3 2.4C14.2 2.3 14.1 2.2 13.9 2.2C13.9 2.2 13.8 2.2 13.8 2.3L13 3H12.8L12.3 2.2C12.2 2 12 2 11.8 2L11.7 2.1L11.2 3H11L10.3 2.3C10.2 2.2 10 2.2 9.9 2.3L9.8 2.4L9.5 3.3C9.4 3.3 9.3 3.3 9.3 3.4L8.5 2.8C8.3 2.7 8.1 2.7 8 2.9V3L7.8 4C7.8 4 7.7 4 7.6 4.1L6.7 3.7C6.6 3.6 6.4 3.7 6.3 3.8V4.9C6.3 5 6.2 5 6.2 5.1L5.2 4.9C5 4.8 4.9 4.9 4.9 5.1V5.2L5.1 6.2C5 6.2 5 6.3 4.9 6.3H3.9C3.7 6.3 3.6 6.4 3.6 6.6V6.7L4 7.6V7.8L3 8C2.8 8 2.7 8.2 2.7 8.3V8.4L3.3 9.2C3.3 9.3 3.3 9.4 3.2 9.4L2.4 9.8C2.3 9.9 2.2 10 2.2 10.2C2.2 10.2 2.2 10.3 2.3 10.3L3 11V11.2L2.2 11.7C2 11.8 2 12 2 12.1L2.1 12.2L3 12.8V13L2.3 13.7C2.2 13.8 2.2 14 2.3 14.1L2.4 14.2L3.3 14.5C3.3 14.6 3.3 14.7 3.4 14.7L2.8 15.5C2.7 15.6 2.7 15.8 2.9 15.9C2.9 15.9 3 15.9 3 16L4 16.2C4 16.3 4.1 16.3 4.1 16.4L3.7 17.3C3.6 17.4 3.7 17.6 3.8 17.7H4.9C5 17.7 5 17.8 5.1 17.8L4.9 18.8C4.9 19 5 19.1 5.1 19.1H5.2L6.2 18.9C6.2 19 6.3 19 6.4 19.1V20.1C6.4 20.3 6.5 20.4 6.7 20.4H6.8L7.7 20H7.8L8 21C8 21.2 8.2 21.3 8.3 21.2H8.4L9.2 20.6C9.3 20.6 9.4 20.6 9.4 20.7L9.7 21.6C9.8 21.7 9.9 21.8 10.1 21.8C10.1 21.8 10.2 21.8 10.2 21.7L11 21H11.2L11.7 21.8C11.8 21.9 12 22 12.1 21.9L12.2 21.8L12.7 21H12.9L13.6 21.7C13.7 21.8 13.9 21.8 14 21.7L14.1 21.6L14.4 20.7C14.5 20.7 14.6 20.7 14.6 20.6L15.4 21.2C15.5 21.3 15.7 21.3 15.8 21.1C15.8 21.1 15.8 21 15.9 21L16.1 20C16.2 20 16.2 19.9 16.3 19.9L17.2 20.3C17.3 20.4 17.5 20.3 17.6 20.2V19.1L17.8 18.9L18.8 19.1C19 19.1 19.1 19 19.1 18.9V18.8L18.9 17.8L19.1 17.6H20.1C20.3 17.6 20.4 17.5 20.4 17.3V17.2L20 16.3C20 16.2 20.1 16.2 20.1 16.1L21.1 15.9C21.3 15.9 21.4 15.7 21.3 15.6V15.5L20.7 14.7L20.8 14.5L21.7 14.2C21.8 14.1 21.9 14 21.9 13.8C21.9 13.8 21.9 13.7 21.8 13.7L21 13V12.8L21.8 12.3C22 12.2 22 12 21.9 11.7C21.9 11.8 21.9 11.8 21.9 11.7M16.2 18.7C15.9 18.6 15.7 18.3 15.7 18C15.8 17.7 16.1 17.5 16.4 17.5C16.7 17.6 16.9 17.9 16.9 18.2C16.9 18.6 16.6 18.8 16.2 18.7M16 16.8C15.7 16.7 15.4 16.9 15.4 17.2L15 18.6C14.1 19 13.1 19.2 12 19.2C10.9 19.2 9.9 19 8.9 18.5L8.6 17.1C8.5 16.8 8.3 16.6 8 16.7L6.8 17C6.6 16.8 6.4 16.5 6.2 16.3H12.2C12.3 16.3 12.3 16.3 12.3 16.2V14.1C12.3 14 12.3 14 12.2 14H10.5V12.7H12.4C12.6 12.7 13.3 12.7 13.6 13.7C13.7 14 13.8 15 14 15.3C14.1 15.6 14.6 16.3 15.1 16.3H18.2C18 16.6 17.8 16.8 17.5 17.1L16 16.8M7.7 18.7C7.4 18.8 7.1 18.6 7 18.2C6.9 17.9 7.1 17.6 7.5 17.5S8.1 17.6 8.2 18C8.2 18.3 8 18.6 7.7 18.7M5.4 9.5C5.5 9.8 5.4 10.2 5.1 10.3C4.8 10.4 4.4 10.3 4.3 10C4.2 9.7 4.3 9.3 4.6 9.2C5 9.1 5.3 9.2 5.4 9.5M4.7 11.1L6 10.6C6.3 10.5 6.4 10.2 6.3 9.9L6 9.3H7V14H5C4.7 13 4.6 12.1 4.7 11.1M10.3 10.7V9.3H12.8C12.9 9.3 13.7 9.4 13.7 10C13.7 10.5 13.1 10.7 12.6 10.7H10.3M19.3 11.9V12.4H18.5C18.4 12.4 18.4 12.4 18.4 12.5V12.8C18.4 13.6 17.9 13.8 17.5 13.8C17.1 13.8 16.7 13.6 16.6 13.4C16.4 12.1 16 11.9 15.4 11.4C16.1 10.9 16.9 10.2 16.9 9.3C16.9 8.3 16.2 7.7 15.8 7.4C15.1 7 14.4 6.9 14.2 6.9H6.6C7.7 5.7 9.1 4.9 10.7 4.6L11.6 5.6C11.8 5.8 12.1 5.8 12.4 5.6L13.4 4.6C15.5 5 17.3 6.3 18.4 8.2L17.7 9.8C17.6 10.1 17.7 10.4 18 10.5L19.3 11.1V11.9M11.6 3.9C11.8 3.7 12.2 3.7 12.4 3.9C12.6 4.1 12.6 4.5 12.4 4.7C12.1 5 11.8 5 11.5 4.7C11.3 4.5 11.4 4.2 11.6 3.9M18.5 9.5C18.6 9.2 19 9.1 19.3 9.2C19.6 9.3 19.7 9.7 19.6 10C19.5 10.3 19.1 10.4 18.8 10.3C18.5 10.2 18.4 9.8 18.5 9.5Z" /></svg>
